dist/media/images/rainbow.svg

<svg width="37" height="26" viewBox="0 0 37 26" fill="none" xmlns="http://www.w3.org/2000/svg">
<g filter="url(#filter0_d_1_1010)">
<path d="M12.8176 22.8861C13.1656 22.8861 13.4477 22.6039 13.4477 22.2559C13.4477 18.8881 13.8809 16.3969 14.7473 14.7824C15.612 13.1679 16.6339 12.3659 17.8129 12.3659C19.0916 12.3659 20.1449 13.1939 20.9886 14.8553C21.8322 16.5167 22.2515 18.9592 22.2515 22.183C22.2515 22.5713 22.5663 22.8861 22.9546 22.8861H34.8907C35.3192 22.8861 35.6667 22.5387 35.6667 22.1101C35.6667 15.166 33.9967 9.87989 30.6569 6.25163C27.3171 2.62338 23.0602 0.814463 17.8863 0.824879C13.4171 0.78614 9.10322 2.45258 5.83356 5.48084C3.88724 7.34568 2.42684 9.65327 1.57843 12.2044C0.467047 15.4378 -0.0650469 18.8398 0.00633806 22.2559C0.00633806 22.6039 0.288473 22.8861 0.636505 22.8861H12.8176Z" fill="white"/>
<path d="M17.8831 1.19258L17.887 1.19258C22.9636 1.18236 27.1201 2.95234 30.3864 6.50066C33.6422 10.0377 35.299 15.2206 35.299 22.1101C35.299 22.3356 35.1162 22.5184 34.8907 22.5184H22.9546C22.7693 22.5184 22.6192 22.3682 22.6192 22.183C22.6192 18.9382 22.199 16.4268 21.3164 14.6888C20.4426 12.9682 19.2897 11.9982 17.8129 11.9982C16.4334 11.9982 15.3139 12.9457 14.4232 14.6088C13.5131 16.3049 13.08 18.8705 13.08 22.2559C13.08 22.4009 12.9625 22.5184 12.8176 22.5184H0.636505C0.491547 22.5184 0.374036 22.4009 0.374036 22.2559H0.374116L0.373955 22.2482C0.303475 18.8754 0.828826 15.5164 1.92616 12.3239L1.92618 12.3239L1.92734 12.3204C2.7565 9.82721 4.18359 7.57168 6.0857 5.7485C9.28609 2.78548 13.5084 1.15464 17.8831 1.19258Z" stroke="#19154A" stroke-width="0.735395"/>
</g>
<defs>
<filter id="filter0_d_1_1010" x="0" y="0.824219" width="36.8221" height="24.4255" filterUnits="userSpaceOnUse" color-interpolation-filters="sRGB">
<feFlood flood-opacity="0" result="BackgroundImageFix"/>
<feColorMatrix in="SourceAlpha" type="matrix" values="0 0 0 0 0 0 0 0 0 0 0 0 0 0 0 0 0 0 127 0" result="hardAlpha"/>
<feOffset dx="1.15562" dy="2.36377"/>
<feComposite in2="hardAlpha" operator="out"/>
<feColorMatrix type="matrix" values="0 0 0 0 0.0980392 0 0 0 0 0.0823529 0 0 0 0 0.290196 0 0 0 1 0"/>
<feBlend mode="normal" in2="BackgroundImageFix" result="effect1_dropShadow_1_1010"/>
<feBlend mode="normal" in="SourceGraphic" in2="effect1_dropShadow_1_1010" result="shape"/>
</filter>
</defs>
</svg>

<svg width="37" height="26" fill="none" xmlns="http://www.w3.org/2000/svg"><g filter="url(#filter0_d_1_1010)"><path d="M12.818 22.886a.63.63 0 00.63-.63c0-3.368.433-5.86 1.3-7.474.864-1.614 1.886-2.416 3.065-2.416 1.279 0 2.332.828 3.176 2.49.843 1.66 1.262 4.103 1.262 7.327 0 .388.315.703.704.703H34.89a.776.776 0 00.776-.776c0-6.944-1.67-12.23-5.01-15.858C27.317 2.623 23.06.814 17.887.825A17.516 17.516 0 005.833 5.48a16.543 16.543 0 00-4.256 6.723A29.053 29.053 0 00.006 22.256c0 .348.282.63.63.63h12.182z" fill="#fff"/><path d="M17.883 1.193h.004c5.077-.01 9.233 1.76 12.5 5.308 3.255 3.537 4.912 8.72 4.912 15.61a.408.408 0 01-.408.407H22.955a.335.335 0 01-.336-.335c0-3.245-.42-5.756-1.303-7.494-.873-1.72-2.026-2.69-3.503-2.69-1.38 0-2.5.947-3.39 2.61-.91 1.696-1.343 4.261-1.343 7.647a.262.262 0 01-.262.262H.637a.262.262 0 01-.263-.262h0v-.008a28.685 28.685 0 011.552-9.924h0l.001-.004a16.175 16.175 0 014.159-6.572 17.148 17.148 0 0111.797-4.555z" stroke="#19154A" stroke-width=".735"/></g><defs><filter id="filter0_d_1_1010" x="0" y=".824" width="36.822" height="24.425" filterUnits="userSpaceOnUse" color-interpolation-filters="sRGB"><feFlood flood-opacity="0" result="BackgroundImageFix"/><feColorMatrix in="SourceAlpha" values="0 0 0 0 0 0 0 0 0 0 0 0 0 0 0 0 0 0 127 0" result="hardAlpha"/><feOffset dx="1.156" dy="2.364"/><feComposite in2="hardAlpha" operator="out"/><feColorMatrix values="0 0 0 0 0.0980392 0 0 0 0 0.0823529 0 0 0 0 0.290196 0 0 0 1 0"/><feBlend in2="BackgroundImageFix" result="effect1_dropShadow_1_1010"/><feBlend in="SourceGraphic" in2="effect1_dropShadow_1_1010" result="shape"/></filter></defs></svg>
